X:1
T:Title
%%score { ( 1 3 ) | ( 2 4 ) }
L:1/8
M:4/4
K:Eb
V:1 treble nm="Grand Piano"
V:3 treble 
V:2 bass 
V:4 bass 
V:1
 z4 z2[Q:1/4=100] E>F | G2 c>B c2 G2 | [DB]2 [DA]2 [DF]2 [DF]>[EG] | %3
 [FA]2 [Ad]>[A_d] [A=d]2 [Ac]2 | [Gc]2 [GB]2 G2 E>F | G2 c>B c2 G2 | [DB]2 [DF]2 [DF]2 [DB]>[DB] | %7
 d2 B2 c2 =A2 |[M:3/4] [DB]6 |[M:1/4] E>F |[M:4/4] [B,EG]2 c>B [EGc]2 E2 | G6 z2 | %12
 [B,EG]2 c>B [EGc]2 [EG]2 | A6 z2 | [DFA]2 d>c [DFd]2 F>G | [DFA]2 d>_d [DF=d]2 F>G | %16
 [DFA]2 [FAd]2 [FAc]2 [DFA]2 | G2- [B,EG-]2 [B,EG]2 E>F | [EG]2 c>B [EGc]2 [B,E]2 | G4 z2 G2 | %20
 [EGe]2 [FG=Bd]2 [EGc]2 [FGB]2 | c6 [FAB]2 | [EGBe]2 [EGB]2 [EAd]2 [EAc]2 | %23
 [B,EGB]2 [EG]2 [CF]2 [CE_Gc]2 | [EGB]2 [EG]2 [A,B,DG]2 [A,B,DF]2 |[M:3/4][K:bass] [G,B,E]4 z2 |] %26
V:2
 z4 z2 [E,G,]>[E,A,E] | [E,B,E]2 [E,G,E]>[E,G,E] [E,G,E]2 [E,G,E]2 | %2
 [B,,F,]2 [B,,B,]2 [B,,B,]2 [B,,B,]>[B,,B,] | [B,,B,]2 [B,,B,]>[B,,B,] [B,,B,]2 [B,,B,]2 | %4
 [E,B,]2 [E,B,]2 [E,B,E]2 [E,G,]>[E,A,E] | [E,B,E]2 [E,G,E]>[E,G,E] [E,G,E]2 [E,G,E]2 | %6
 [B,,F,]2 [B,,B,]2 [B,,B,]2 [B,,F,]>[B,,F,] | [F,B,F]2 [F,DF]2 [F,=A,E]2 [F,CE]2 | %8
[M:3/4] [B,,B,]2 A,,2 G,,2 |[M:1/4] [F,,F,]2 |[M:4/4] [E,,E,]2 [B,,,B,,]2 [E,,E,]2 [B,,,B,,]2 | %11
 [E,,E,]2 [B,,,B,,]2 [E,,E,]2 [B,,,B,,]2 | [E,,E,]2 [B,,,B,,]2 [E,,E,]2 [B,,,B,,]2 | %13
 [F,,F,]2 [B,,,B,,]2 [F,,F,]2 [B,,,B,,]2 | [F,,F,]2 [B,,,B,,]2 [F,,F,]2 [B,,,B,,]2 | %15
 [F,,F,]2 [B,,,B,,]2 [F,,F,]2 [B,,,B,,]2 | [F,,F,]2 [B,,,B,,]2 [F,,F,]2 [B,,,B,,]2 | %17
 [E,,E,]2 [B,,,B,,]2 [G,,,G,,]2 z2 | [F,,F,]2 [B,,,B,,]2 [E,,E,]2 [B,,,B,,]2 | %19
 [E,,E,]2 [B,,,B,,]2 [E,,E,]2 [E,,E,]2 | [C,,C,]2 [D,,D,]2 [E,,E,]2 [G,,G,]2 | %21
 [C,G,]2 [C,G,]2 [C,G,]2 [B,,B,]2 | [E,,E,]2 [E,,E,]2 [A,,A,]2 z z/[K:treble] c/ | %23
 B,,2 [B,,B,]2 [A,,A,]2 [=A,,_G,]2 | z2 [B,,G,B,]2 z4 |[M:3/4] E,,2 B,,,2 E,,,2 |] %26
V:3
 x8 | x8 | x8 | x8 | x8 | x8 | x8 | x8 |[M:3/4] z2 A,2 G,2 |[M:1/4] x2 |[M:4/4] z2 [EG]2 z4 | %11
 [B,E]2 [B,E]2 [B,E]2 E>F | z2 [EG]2 z4 | [DF]2 [DF]2 [DF]2 F>G | z2 [DF]2 z2 D2 | z2 [DF]2 z2 D2 | %16
 x8 | [B,E]2 z2 z4 | z2 [EG]2 z4 | [B,E]2 [B,E]2 [B,E]2 [B,E]->[B,EG] | x8 | %21
 [EG]2 [EG]2 [EG]2 d>d | x8 | x8 | x8 |[M:3/4][K:bass] E,2 B,,2 E,,2 |] %26
V:4
 x8 | x8 | x8 | x8 | x8 | x8 | x8 | x8 |[M:3/4] x6 |[M:1/4] x2 |[M:4/4] x8 | x8 | x8 | x8 | x8 | %15
 x8 | x8 | x8 | x8 | x8 | x8 | x8 | z4 z2 [A,,A,]2[K:treble] | x8 | [B,,G,B,]2 z z/ E/ B,,2 B,,2 | %25
[M:3/4] x6 |] %26

